elusive/soundcloud.svg

<?xml version="1.0" encoding="UTF-8" standalone="no"?>
<!-- Generator: IcoMoon.io -->

<svg
   xmlns:dc="http://purl.org/dc/elements/1.1/"
   xmlns:cc="http://creativecommons.org/ns#"
   xmlns:rdf="http://www.w3.org/1999/02/22-rdf-syntax-ns#"
   xmlns:svg="http://www.w3.org/2000/svg"
   xmlns="http://www.w3.org/2000/svg"
   xmlns:sodipodi="http://sodipodi.sourceforge.net/DTD/sodipodi-0.dtd"
   xmlns:inkscape="http://www.inkscape.org/namespaces/inkscape"
   id="svg2"
   version="1.1"
   data-tags="remove-circle, cancel, close, remove, delete"
   height="1200"
   width="1200"
   data-du=""
   viewBox="0 0 1200 1200"
   inkscape:version="0.48.4 r9939"
   sodipodi:docname="soundcloud.svg">
  <defs
     id="defs32">
    <pattern
       id="pattern13199"
       width="811.3138"
       patternUnits="userSpaceOnUse"
       patternTransform="translate(-1692.9959,113.8855)"
       height="483.7205">
      <path
         id="path13201"
         filter="url(#filter3767)"
         d="M241.8603,83.1823H569.4535A158.678,158.678 0 0 1 728.1315,241.8603V241.8603A158.678,158.678 0 0 1 569.4535,400.5382H241.8603A158.678,158.678 0 0 1 83.1823,241.8603V241.8603A158.678,158.678 0 0 1 241.8603,83.1823" />
    </pattern>
    <mask
       id="mask13195"
       maskUnits="userSpaceOnUse">
      <path
         id="path13197"
         d="m -957.1864,582.2458 40.9492,-299.4407 -144.6017,-8.9576 -10.2373,67.822 -12.7966,11.5169 -8.9576,216.2627 -65.2627,-21.7542 14.0763,-270.0085 -74.2204,-6.3983 -11.5169,28.1525 -14.0763,225.2203 -42.2288,-8.9576 2.5593,-250.8136 -6.3983,0 -7.678,-70.3814 -33.2712,1.2797 -1.2796,29.4322 -7.678,17.9153 -2.5593,189.3898 -26.8729,33.2712 2.5593,88.2966 40.9492,19.1949 34.5508,-46.0678 284.0848,76.7797 49.9068,-21.7542"
         inkscape:connector-curvature="0"
         style="fill:#ffffff;stroke:#000000" />
    </mask>
    <filter
       id="filter13191"
       y="-0.26210001"
       x="-0.12899999"
       width="1.2579"
       height="1.5242"
       color-interpolation-filters="sRGB">
      <feGaussianBlur
         id="feGaussianBlur13193"
         stdDeviation="34.659" />
    </filter>
    <inkscape:path-effect
       id="path-effect13189" />
    <inkscape:path-effect
       id="path-effect21802" />
  </defs>
  <sodipodi:namedview
     pagecolor="#ffffff"
     bordercolor="#666666"
     borderopacity="1"
     objecttolerance="10"
     gridtolerance="10"
     guidetolerance="10"
     inkscape:pageopacity="0"
     inkscape:pageshadow="2"
     inkscape:window-width="1535"
     inkscape:window-height="876"
     id="namedview30"
     showgrid="false"
     inkscape:zoom="0.52678571"
     inkscape:cx="593.76445"
     inkscape:cy="629.17655"
     inkscape:window-x="65"
     inkscape:window-y="24"
     inkscape:window-maximized="1"
     inkscape:current-layer="svg2" />
  <metadata
     id="metadata62">
    <rdf:RDF>
      <cc:Work
         rdf:about="">
        <dc:format>image/svg+xml</dc:format>
        <dc:type
           rdf:resource="http://purl.org/dc/dcmitype/StillImage" />
        <dc:title />
      </cc:Work>
    </rdf:RDF>
  </metadata>
  <path
     id="path21804"
     d="m 728.81979,340.65397 c -27.84812,0.19453 -55.79906,4.81992 -82.56625,14.52071 -5.57562,2.08945 -14.61124,5.14757 -18.57328,14.2207 l 1.21938,479.95787 c 2.36812,5.2207 5.48578,8.11969 10.69359,9.98062 l 426.73337,0 c 69.7486,1.22438 124.1042,-58.43462 132.9017,-131.10047 7.5343,-78.67877 -40.5443,-149.13941 -124.9095,-161.36183 -23.9637,-3.45797 -53.8198,-0.0234 -78.10121,9.56813 -0.81375,0.36422 -1.04578,-0.55219 -1.66968,-6.30352 C 988.55462,517.43883 966.46478,470.97422 930.9676,427.32889 882.09338,373.4878 805.81151,340.11819 728.81979,340.65397 z m -132.20734,35.10141 c -8.14031,0 -15.93265,115.90009 -17.22234,347.7127 19.94109,177.77171 17.69672,182.38859 36.52734,0 -2.67422,-231.82574 -11.16468,-347.71598 -19.30484,-347.7127 z m -51.57359,27.59695 c -8.14031,0.25219 -15.75781,107.20712 -16.71594,320.11575 19.9411,177.77171 17.69672,182.38859 36.52735,0 -3.00578,-213.91668 -11.6711,-320.3677 -19.81141,-320.11575 z m -149.63624,33.07548 c -0.0609,0 -0.12657,0 -0.18766,0.0234 -7.65844,1.15781 -14.85312,96.50673 -16.79094,287.02152 19.9411,177.77171 17.67797,182.38859 36.5086,0 -3.66907,-190.68987 -11.805,-286.70043 -19.53,-287.04027 z m 50.24156,8.96766 c -7.89141,-0.16172 -15.53188,92.359 -17.48516,278.07261 19.9411,177.77171 17.69672,182.38859 36.52734,0 -3.00578,-185.06346 -11.15062,-277.90995 -19.04218,-278.07261 z m -99.67609,3.73336 c -8.22313,0.0867 -15.67063,91.6104 -15.96547,274.33925 19.94109,177.77171 17.67797,182.38859 36.50859,0 -3.3375,-183.07338 -12.31984,-274.4255 -20.54312,-274.33925 z m 149.27968,5.44078 c -0.0625,-0.001 -0.12344,0 -0.1875,0.0234 -8.05734,1.24687 -15.5325,92.12063 -16.49094,268.87972 19.9411,177.77171 17.69672,182.38859 36.52735,0 C 511.78527,543.14579 503.25089,454.72664 495.24777,454.5743 z m -197.94515,11.95055 c -7.0839,-0.068 -13.79953,84.20227 -17.05359,256.94792 19.94109,177.77171 17.69672,182.38859 36.52734,0 -4.70062,-169.79721 -12.27812,-256.87972 -19.47375,-256.94792 z m -47.67117,47.76492 c -6.73078,-0.41133 -13.52275,68.90509 -18.46056,209.183 19.94111,177.77171 17.69673,182.38859 36.52736,0 -4.6643,-138.63284 -11.33602,-208.77168 -18.06656,-209.183 z m -96.97454,69.49009 c -3.98531,0.80812 -7.91507,44.78087 -16.67837,133.55815 18.85478,175.80757 16.73392,180.37366 34.53868,0 -9.57469,-89.27697 -13.74844,-134.39206 -17.86031,-133.55815 z m -48.08392,3.63961 c -3.98507,0.79218 -7.915078,43.89892 -16.678359,130.91299 18.854769,172.31515 16.733909,176.79062 34.538669,0 -9.42726,-86.15767 -13.62117,-130.35354 -17.67257,-130.91299 -0.0633,0 -0.12453,-0.0234 -0.18774,0 z m 95.47384,1.98867 c -4.21477,0.80836 -8.36695,44.79962 -17.63508,133.5769 19.94109,175.8071 17.69672,180.37319 36.52734,0 -9.97054,-87.90353 -14.40093,-133.0062 -18.68578,-133.5769 -0.067,0 -0.13937,-0.0234 -0.20648,0 z M 57.821039,610.95962 c -3.985547,0.6668 -7.933828,36.96376 -16.697124,110.20104 18.85478,145.0336 16.733921,148.80048 34.538686,0 -9.427266,-72.51587 -13.602422,-109.73042 -17.653828,-110.20104 -0.06328,0 -0.124218,0 -0.187734,0 z M 13.638994,650.7701 C 10.380947,651.19901 7.1643852,674.53104 1.049122e-5,721.6484 15.414384,814.95474 13.679072,817.37817 28.234931,721.6484 20.407275,674.26526 17.000634,650.3276 13.638994,650.7701 z"
     inkscape:connector-curvature="0" />
</svg>

<?xml version="1.0" encoding="utf-8"?>
<!-- Generator: Adobe Illustrator 13.0.0, SVG Export Plug-In . SVG Version: 6.00 Build 14948)  -->
<!DOCTYPE svg PUBLIC "-//W3C//DTD SVG 1.1//EN" "http://www.w3.org/Graphics/SVG/1.1/DTD/svg11.dtd">
<svg version="1.1"
	 id="svg2" inkscape:version="0.48.4 r9939" sodipodi:docname="soundcloud.svg" xmlns:dc="http://purl.org/dc/elements/1.1/" xmlns:cc="http://creativecommons.org/ns#" xmlns:rdf="http://www.w3.org/1999/02/22-rdf-syntax-ns#" xmlns:svg="http://www.w3.org/2000/svg" xmlns:sodipodi="http://sodipodi.sourceforge.net/DTD/sodipodi-0.dtd" xmlns:inkscape="http://www.inkscape.org/namespaces/inkscape"
	 xmlns="http://www.w3.org/2000/svg" xmlns:xlink="http://www.w3.org/1999/xlink" x="0px" y="0px" width="1200px" height="1200px"
	 viewBox="0 0 1200 1200" enable-background="new 0 0 1200 1200" xml:space="preserve">
<path id="path21804" inkscape:connector-curvature="0" d="M728.819,340.654c-27.848,0.195-55.799,4.82-82.565,14.521
	c-5.576,2.089-14.611,5.147-18.573,14.221l1.219,479.958c2.368,5.221,5.486,8.119,10.693,9.98h426.733
	c69.749,1.225,124.104-58.435,132.902-131.101c7.534-78.679-40.545-149.14-124.91-161.362c-23.963-3.457-53.819-0.022-78.101,9.568
	c-0.813,0.364-1.046-0.552-1.67-6.304c-5.993-52.697-28.083-99.161-63.58-142.807C882.094,373.488,805.812,340.118,728.819,340.654z
	 M596.612,375.755c-8.141,0-15.933,115.9-17.223,347.712c19.941,177.772,17.697,182.389,36.527,0
	C613.243,491.643,604.753,375.752,596.612,375.755L596.612,375.755z M545.039,403.353c-8.141,0.252-15.758,107.207-16.716,320.115
	c19.94,177.772,17.696,182.389,36.527,0C561.845,509.552,553.179,403.101,545.039,403.353z M395.402,436.428
	c-0.061,0-0.126,0-0.188,0.023c-7.658,1.158-14.854,96.507-16.791,287.021c19.941,177.771,17.678,182.389,36.509,0
	c-3.669-190.689-11.805-286.7-19.53-287.04V436.428z M445.645,445.396c-7.892-0.162-15.532,92.359-17.485,278.072
	c19.94,177.772,17.696,182.389,36.527,0C461.681,538.404,453.536,445.558,445.645,445.396L445.645,445.396z M345.968,449.129
	c-8.223,0.087-15.67,91.61-15.965,274.339c19.94,177.772,17.678,182.389,36.508,0C363.174,540.395,354.191,449.043,345.968,449.129
	L345.968,449.129z M495.248,454.569c-0.063-0.001-0.124,0-0.188,0.023c-8.058,1.247-15.533,92.121-16.491,268.88
	c19.941,177.771,17.696,182.389,36.527,0c-3.312-180.327-11.846-268.746-19.849-268.898V454.569z M297.303,466.521
	c-7.084-0.068-13.8,84.202-17.054,256.947c19.941,177.772,17.697,182.389,36.527,0C312.076,553.671,304.498,466.588,297.303,466.521
	L297.303,466.521z M249.631,514.285c-6.73-0.411-13.522,68.905-18.46,209.183c19.941,177.772,17.697,182.389,36.527,0
	C263.034,584.835,256.362,514.696,249.631,514.285L249.631,514.285z M152.657,583.775c-3.985,0.808-7.915,44.78-16.678,133.558
	c18.855,175.808,16.734,180.374,34.539,0C160.942,628.057,156.769,582.941,152.657,583.775z M104.573,587.415
	c-3.985,0.792-7.915,43.898-16.678,130.913c18.855,172.314,16.734,176.79,34.539,0c-9.427-86.158-13.621-130.354-17.672-130.913
	C104.697,587.415,104.636,587.392,104.573,587.415L104.573,587.415z M200.047,589.403c-4.215,0.809-8.367,44.8-17.635,133.577
	c19.941,175.807,17.697,180.373,36.527,0c-9.97-87.903-14.401-133.006-18.686-133.577
	C200.187,589.403,200.114,589.38,200.047,589.403z M57.821,610.96c-3.985,0.666-7.934,36.964-16.697,110.2
	c18.854,145.034,16.734,148.801,34.539,0c-9.427-72.516-13.603-109.729-17.654-110.2C57.945,610.96,57.885,610.96,57.821,610.96z
	 M13.639,650.771C10.381,651.199,7.165,674.531,0,721.648c15.415,93.307,13.679,95.729,28.235,0
	C20.407,674.266,17,650.327,13.639,650.771z"/>
</svg>
